X: 11263
T: Dusty Windowsills
R: jig
M: 6/8
K: Adorian
|:A2B cBA|eAB cBA|GFG EGG|DGG EGG|
A2B cBA|e2d efg|age dBG|1 ABA A2E:|2 ABA Ace||
|:~a3 age|dBd ~g3|gag gfe|dBA G2G|
EGG DGG|EGG ABc|Bed BAG|1 BAG Ace:|2 BAG A2E||
|:ABA gAf|ABA gAf|GAG eGd|GAG edB|
ABA gAf|ABA efg|age dBG|ABA A2E:|

